src/apps/scalable/cinnamon-panel-launcher.svg

<?xml version="1.0" encoding="UTF-8" standalone="no"?>
<svg
   xmlns:dc="http://purl.org/dc/elements/1.1/"
   xmlns:cc="http://creativecommons.org/ns#"
   xmlns:rdf="http://www.w3.org/1999/02/22-rdf-syntax-ns#"
   xmlns:svg="http://www.w3.org/2000/svg"
   xmlns="http://www.w3.org/2000/svg"
   xmlns:xlink="http://www.w3.org/1999/xlink"
   xmlns:sodipodi="http://sodipodi.sourceforge.net/DTD/sodipodi-0.dtd"
   xmlns:inkscape="http://www.inkscape.org/namespaces/inkscape"
   inkscape:version="1.0.1 (3bc2e813f5, 2020-09-07)"
   sodipodi:docname="cinnamon-panel-launcher.svg"
   id="svg37"
   version="1.1"
   viewBox="0 0 16.933 16.933"
   height="64"
   width="64">
  <metadata
     id="metadata41">
    <rdf:RDF>
      <cc:Work
         rdf:about="">
        <dc:format>image/svg+xml</dc:format>
        <dc:type
           rdf:resource="http://purl.org/dc/dcmitype/StillImage" />
        <dc:title></dc:title>
      </cc:Work>
    </rdf:RDF>
  </metadata>
  <sodipodi:namedview
     inkscape:document-rotation="0"
     inkscape:current-layer="svg37"
     inkscape:window-maximized="1"
     inkscape:window-y="38"
     inkscape:window-x="0"
     inkscape:cy="24.497579"
     inkscape:cx="8.7772753"
     inkscape:zoom="5.2149125"
     showgrid="false"
     id="namedview39"
     inkscape:window-height="935"
     inkscape:window-width="1920"
     inkscape:pageshadow="2"
     inkscape:pageopacity="0"
     guidetolerance="10"
     gridtolerance="10"
     objecttolerance="10"
     borderopacity="1"
     bordercolor="#666666"
     pagecolor="#ffffff" />
  <defs
     id="defs9">
    <linearGradient
       inkscape:collect="always"
       id="linearGradient1112">
      <stop
         style="stop-color:#0061e5;stop-opacity:1"
         offset="0"
         id="stop1108" />
      <stop
         style="stop-color:#007af1;stop-opacity:1"
         offset="1"
         id="stop1110" />
    </linearGradient>
    <linearGradient
       id="a">
      <stop
         id="stop2"
         stop-color="#66bcff"
         offset="0" />
      <stop
         id="stop4"
         stop-color="#b29aff"
         offset="1" />
    </linearGradient>
    <linearGradient
       gradientTransform="matrix(1.07143,0,0,1,-27.4395,-280.067)"
       gradientUnits="userSpaceOnUse"
       y2="280.067"
       x2="2.117"
       y1="297"
       x1="13.229"
       id="c"
       xlink:href="#a" />
    <linearGradient
       y2="280.067"
       x2="2.117"
       y1="297"
       x1="13.229"
       gradientUnits="userSpaceOnUse"
       id="b"
       xlink:href="#a" />
    <filter
       id="filter11290"
       x="-.024"
       y="-.024"
       width="1.048"
       height="1.048"
       color-interpolation-filters="sRGB">
      <feGaussianBlur
         stdDeviation="0.15875313"
         id="feGaussianBlur848" />
    </filter>
    <linearGradient
       id="linearGradient918"
       x1="1.2518"
       x2="16.367"
       y1="1.2378"
       y2="16.353"
       gradientUnits="userSpaceOnUse">
      <stop
         stop-color="#af64ff"
         offset="0"
         id="stop851" />
      <stop
         stop-color="#3287ff"
         offset="1"
         id="stop853" />
    </linearGradient>
    <linearGradient
       id="linearGradient894"
       x1="0.52916002"
       x2="16.403999"
       y1="14.42"
       y2="2.5135"
       gradientTransform="matrix(0.99999999,0,0,1.1111,-19.58646,-0.94091994)"
       gradientUnits="userSpaceOnUse">
      <stop
         stop-color="#005ae1"
         offset="0"
         id="stop2-3" />
      <stop
         stop-color="#0096ff"
         offset="1"
         id="stop4-6" />
    </linearGradient>
    <linearGradient
       id="linearGradient864"
       x1="1.1905"
       x2="15.742"
       y1="1.1905"
       y2="15.742"
       gradientUnits="userSpaceOnUse"
       gradientTransform="translate(-6.0369873e-7,-7.115549e-5)">
      <stop
         stop-color="#2aaeea"
         offset="0"
         id="stop883"
         style="stop-color:#0092fd;stop-opacity:1" />
      <stop
         stop-color="#818ce4"
         offset="1"
         id="stop885"
         style="stop-color:#005de3;stop-opacity:1" />
    </linearGradient>
    <linearGradient
       inkscape:collect="always"
       xlink:href="#linearGradient1112"
       id="linearGradient1114"
       x1="4.4429431"
       y1="59.094952"
       x2="59.202698"
       y2="4.9329114"
       gradientUnits="userSpaceOnUse" />
  </defs>
  <path
     id="rect1103"
     style="opacity:1;fill:url(#linearGradient1114);fill-opacity:1;stroke-width:3;stroke-linecap:round;stroke-linejoin:round;paint-order:stroke fill markers"
     d="M 17.5 4.5 C 10.298033 4.5 4.5 10.298033 4.5 17.5 L 4.5 46.5 C 4.5 53.701967 10.298033 59.5 17.5 59.5 L 46.5 59.5 C 53.701967 59.5 59.5 53.701967 59.5 46.5 L 59.5 17.5 C 59.5 10.298033 53.701967 4.5 46.5 4.5 L 17.5 4.5 z "
     transform="scale(0.26457812)" />
  <path
     id="path948"
     style="fill:#ffffff;paint-order:stroke fill markers;opacity:0.35"
     d="M 17.5 4.5 C 12.252511 4.5 7.762199 7.5845461 5.7050781 12.041016 L 58.294922 12.041016 C 56.237801 7.5845461 51.747489 4.5 46.5 4.5 L 17.5 4.5 z "
     transform="scale(0.26457812)" />
  <rect
     id="rect950"
     style="fill:#ffffff;paint-order:stroke markers fill"
     ry="0.26459"
     height="0.52917999"
     width="2.6458001"
     y="2.31019"
     x="7.1435695" />
  <rect
     id="rect952"
     style="fill:#ffffff;paint-order:stroke markers fill"
     ry="0.26459"
     height="0.52917999"
     width="1.0583"
     y="2.31019"
     x="2.5762703" />
  <rect
     id="rect954"
     style="fill:#ffffff;paint-order:stroke markers fill"
     ry="0.26459"
     height="0.52917999"
     width="0.52916998"
     y="2.31019"
     x="13.826869" />
  <rect
     id="rect956"
     style="fill:#ffffff;paint-order:stroke markers fill"
     ry="0.26459"
     height="0.52917999"
     width="0.79374999"
     y="2.31019"
     x="12.768869" />
  <rect
     id="rect958"
     style="fill:#ffffff;paint-order:stroke markers fill"
     ry="0.26459"
     height="0.52917999"
     width="0.52916998"
     y="2.31019"
     x="11.97487" />
  <path
     id="path969"
     style="fill:#ffffff;paint-order:stroke markers fill;opacity:0.35"
     d="M 15 53 C 13.891972 53 13 53.89201 13 55 L 13 58.689453 C 14.402766 59.204771 15.914178 59.5 17.5 59.5 L 46.5 59.5 C 48.085822 59.5 49.597234 59.204771 51 58.689453 L 51 55 C 51 53.891972 50.10799 53 49 53 L 15 53 z "
     transform="scale(0.26457812)" />
  <rect
     id="rect971"
     style="fill:#ffffff;paint-order:stroke markers fill"
     ry="0.13229001"
     height="1.3229001"
     width="1.3229001"
     y="13.516177"
     x="4.49786" />
  <rect
     id="rect973"
     style="fill:#ffffff;paint-order:stroke markers fill"
     ry="0.13229001"
     height="1.3229001"
     width="1.3229001"
     y="13.516177"
     x="6.7027597" />
  <rect
     id="rect975"
     style="fill:#ffffff;paint-order:stroke markers fill"
     ry="0.13229001"
     height="1.3229001"
     width="1.3229001"
     y="13.516177"
     x="8.9075603" />
  <rect
     id="rect977"
     style="fill:#ffffff;paint-order:stroke markers fill"
     ry="0.13229001"
     height="1.3229001"
     width="1.3229001"
     y="13.516177"
     x="11.11196" />
</svg>

<?xml version="1.0" encoding="UTF-8"?>
<svg id="svg37" width="64" height="64" version="1.1" viewBox="0 0 16.933 16.933" xmlns="http://www.w3.org/2000/svg" xmlns:cc="http://creativecommons.org/ns#" xmlns:dc="http://purl.org/dc/elements/1.1/" xmlns:rdf="http://www.w3.org/1999/02/22-rdf-syntax-ns#" xmlns:xlink="http://www.w3.org/1999/xlink">
 <metadata id="metadata41">
  <rdf:RDF>
   <cc:Work rdf:about="">
    <dc:format>image/svg+xml</dc:format>
    <dc:type rdf:resource="http://purl.org/dc/dcmitype/StillImage"/>
    <dc:title/>
   </cc:Work>
  </rdf:RDF>
 </metadata>
 <defs id="defs9">
  <linearGradient id="linearGradient1114" x1="4.4429" x2="59.203" y1="59.095" y2="4.9329" gradientUnits="userSpaceOnUse">
   <stop id="stop1108" stop-color="#0061e5" offset="0"/>
   <stop id="stop1110" stop-color="#007af1" offset="1"/>
  </linearGradient>
 </defs>
 <path id="rect1103" transform="scale(.26458)" d="m17.5 4.5c-7.202 0-13 5.798-13 13v29c0 7.202 5.798 13 13 13h29c7.202 0 13-5.798 13-13v-29c0-7.202-5.798-13-13-13h-29z" fill="url(#linearGradient1114)" stroke-linecap="round" stroke-linejoin="round" stroke-width="3" style="paint-order:stroke fill markers"/>
 <path id="path948" transform="scale(.26458)" d="m17.5 4.5c-5.2475 0-9.7378 3.0845-11.795 7.541h52.59c-2.0571-4.4565-6.5474-7.541-11.795-7.541h-29z" fill="#fff" opacity=".35" style="paint-order:stroke fill markers"/>
 <rect id="rect950" x="7.1436" y="2.3102" width="2.6458" height=".52918" ry=".26459" fill="#fff" style="paint-order:stroke markers fill"/>
 <rect id="rect952" x="2.5763" y="2.3102" width="1.0583" height=".52918" ry=".26459" fill="#fff" style="paint-order:stroke markers fill"/>
 <rect id="rect954" x="13.827" y="2.3102" width=".52917" height=".52918" ry=".26459" fill="#fff" style="paint-order:stroke markers fill"/>
 <rect id="rect956" x="12.769" y="2.3102" width=".79375" height=".52918" ry=".26459" fill="#fff" style="paint-order:stroke markers fill"/>
 <rect id="rect958" x="11.975" y="2.3102" width=".52917" height=".52918" ry=".26459" fill="#fff" style="paint-order:stroke markers fill"/>
 <path id="path969" transform="scale(.26458)" d="m15 53c-1.108 0-2 0.89201-2 2v3.6895c1.4028 0.51532 2.9142 0.81055 4.5 0.81055h29c1.5858 0 3.0972-0.29523 4.5-0.81055v-3.6895c0-1.108-0.89201-2-2-2h-34z" fill="#fff" opacity=".35" style="paint-order:stroke markers fill"/>
 <rect id="rect971" x="4.4979" y="13.516" width="1.3229" height="1.3229" ry=".13229" fill="#fff" style="paint-order:stroke markers fill"/>
 <rect id="rect973" x="6.7028" y="13.516" width="1.3229" height="1.3229" ry=".13229" fill="#fff" style="paint-order:stroke markers fill"/>
 <rect id="rect975" x="8.9076" y="13.516" width="1.3229" height="1.3229" ry=".13229" fill="#fff" style="paint-order:stroke markers fill"/>
 <rect id="rect977" x="11.112" y="13.516" width="1.3229" height="1.3229" ry=".13229" fill="#fff" style="paint-order:stroke markers fill"/>
</svg>
